tools/download-figma-icons/icons/outlined-large/shopping-cart.svg

<svg width="64" height="64" viewBox="0 0 64 64" fill="none" xmlns="http://www.w3.org/2000/svg">
<path fill-rule="evenodd" clip-rule="evenodd" d="M47.2546 27.0968H58.3046L60.5785 17.9999H48.7706L47.2546 27.0968ZM45.2707 38.9997H55.3286L57.5546 30.0968H46.7546L45.2707 38.9997ZM28.1748 27.0968L26.2808 17.9999H14.4209L16.6959 27.0968H28.1748ZM29.3448 17.9999L31.2408 27.0968H44.2127L45.7297 17.9999H29.3448ZM19.6708 38.9997H30.6558L28.7998 30.0968H17.4459L19.6708 38.9997ZM31.8658 30.0968L33.7197 38.9997H42.2297L43.7127 30.0968H31.8658ZM62.4995 14.9999C62.9615 14.9999 63.3985 15.2129 63.6825 15.5769C63.9665 15.9419 64.0675 16.4159 63.9545 16.8649L57.9546 40.8647C57.7876 41.5317 57.1886 41.9997 56.4996 41.9997H20.3978L21.6668 47.0006L53.5746 47.0346C54.4026 47.0356 55.0736 47.7076 55.0726 48.5366C55.0716 49.3646 54.4006 50.0346 53.5726 50.0346H53.5706L20.4978 49.9996C20.3438 49.9996 20.1988 49.9696 20.0578 49.9256C20.0338 49.9186 20.0098 49.9116 19.9858 49.9036C19.8498 49.8536 19.7248 49.7866 19.6109 49.7016C19.5993 49.6937 19.5888 49.6847 19.5781 49.6754C19.5713 49.6695 19.5643 49.6635 19.5568 49.6576C19.4419 49.5636 19.3359 49.4576 19.2529 49.3336C19.252 49.3323 19.2513 49.3308 19.2507 49.3294C19.2498 49.3275 19.249 49.3258 19.2479 49.3246C19.1649 49.1996 19.1069 49.0576 19.0639 48.9086C19.0619 48.9019 19.0586 48.8958 19.0552 48.8897C19.0516 48.8831 19.0479 48.8764 19.0459 48.8686L7.39894 2.99998H1.49999C0.671995 2.99998 0 2.32798 0 1.49999C0 0.671995 0.671995 0 1.49999 0H8.49994C9.00593 0 9.45093 0.251998 9.72293 0.635995C9.87192 0.807994 9.98992 1.01099 10.0489 1.24599L13.5409 14.9999H62.4995ZM28.0001 60.9998C26.3461 60.9998 25.0001 59.6538 25.0001 57.9999C25.0001 56.3459 26.3461 54.9999 28.0001 54.9999C29.6541 54.9999 31.0001 56.3459 31.0001 57.9999C31.0001 59.6538 29.6541 60.9998 28.0001 60.9998ZM28.0001 51.9999C24.6911 51.9999 22.0001 54.6909 22.0001 57.9999C22.0001 61.3088 24.6911 63.9998 28.0001 63.9998C31.3091 63.9998 34 61.3088 34 57.9999C34 54.6909 31.3091 51.9999 28.0001 51.9999ZM46 60.9998C44.346 60.9998 43 59.6538 43 57.9999C43 56.3459 44.346 54.9999 46 54.9999C47.6539 54.9999 48.9999 56.3459 48.9999 57.9999C48.9999 59.6538 47.6539 60.9998 46 60.9998ZM46 51.9999C42.691 51.9999 40 54.6909 40 57.9999C40 61.3088 42.691 63.9998 46 63.9998C49.3089 63.9998 51.9999 61.3088 51.9999 57.9999C51.9999 54.6909 49.3089 51.9999 46 51.9999Z" fill="black"/>
</svg>

<svg xmlns="http://www.w3.org/2000/svg" width="64" height="64" fill="none" viewBox="0 0 64 64"><path fill="currentColor" fill-rule="evenodd" d="M47.255 27.097h11.05L60.578 18H48.771zM45.27 39h10.058l2.226-8.903h-10.8zM28.175 27.097 26.28 18H14.42l2.275 9.097zM29.345 18l1.896 9.097h12.972L45.73 18zM19.67 39h10.985L28.8 30.097H17.446zm12.195-8.903L33.72 39h8.51l1.483-8.903zM62.499 15a1.5 1.5 0 0 1 1.456 1.865l-6 24A1.5 1.5 0 0 1 56.5 42H20.398l1.269 5 31.908.035a1.5 1.5 0 0 1-.002 3h-.002L20.498 50c-.154 0-.3-.03-.44-.074l-.072-.022a1.5 1.5 0 0 1-.43-.246 1.5 1.5 0 0 1-.305-.329l-.003-.004a1.5 1.5 0 0 1-.184-.416l-.009-.02-.01-.02L7.4 3H1.5a1.5 1.5 0 0 1 0-3h7c.506 0 .95.252 1.223.636.149.172.267.375.326.61L13.54 15zM28 61c-1.654 0-3-1.346-3-3s1.346-3 3-3 3 1.346 3 3-1.346 3-3 3m0-9c-3.309 0-6 2.69-6 6s2.691 6 6 6 6-2.691 6-6-2.69-6-6-6m18 9c-1.654 0-3-1.346-3-3s1.346-3 3-3 3 1.346 3 3-1.346 3-3 3m0-9c-3.309 0-6 2.69-6 6s2.691 6 6 6 6-2.691 6-6-2.691-6-6-6" clip-rule="evenodd"/></svg>
